X: 31502
T: COTILLION No. 37. LUCY LONG SETT tune 2
C:
%R: reel, polka
B: Elias Howe "The Musician's Companion" Part 3 1844 p.150 #2
S: http://imslp.org/wiki/The_Musician's_Companion_(Howe,_Elias)
Z: 2015 John Chambers <jc:trillian.mit.edu>
M: 2/4
L: 1/8
K: G
% - - - - - - - - - - - - - - - - - - - - - - - - -
(G/A/) |\
.B.B .G.G | F<A zB | .c.c .F.F | {A}G2 z(G/A/) |\
.B.B .G.G | F<d z.d/.d/ | .c.c .E.F | G2 z H:|
(G/A/) |\
.B.B .G.G | F<A z{A}B | .c.c EF | {A}G2 z(g/a/) |\
.b.b .g.g | f<a z{a}b | c'c' .e.f | g2 "^D.C."z |]
% - - - - - - - - - - Dance description - - - - - - - - - -
%%begintext align
%% Ladies all balance to the right,
%% all promenade,
%% gentlemen the same,
%% promenade 8.
%%endtext
% - - - - - - - - - - - - - - - - - - - - - - - - -
%%sep 1 1 300
